X:082
T:J Scott Skinner
C:J Murdoch Henderson
Z:Nigel Gatherer
M:4/4
L:1/8
K:A
e|c>A A/A/A EGAE|CEAc eaec|d>B B/B/B GABc|dBba gbed|c>A A/A/A EGAE|
CEAc eaec|fdcd eaga|fdBG A3||B|Aaga caga|ecea fedc|
Bb^ab egb=a|gfe^d defg|aAAa gebg|fdda ecce|fdcd eaga|fdBG A3|]
<end>
<start>
